X: 1
T: The Northern Meeting
C: trad.
R: Strathspey
B: Paul Cranford ‘The Cape Breton Scottish Collection’.
%Q: 128
M: C
L: 1/16
K: D
d | AD3 B3D AD3 F4  | AD3 B3D AD3 Fd3 | AD3 B3D AD3 F4  | AF3 d3c B7 :|
c | d3e fb3 c3d ea3 | d3e fb3 af3 fb3 | d3e fb3 c3d ea3 | f3e dc3 B7 |]
c | d3e fb3 c3d ea3 | d3e fb3 af3 fb3 | fb3 ag3 f3e d3c | BF3 d3c B7 |]
